X:1685
T:Petters Piga
R:Polkett
O:Norrbotten
Z:Anton Teljebäck
M:2/4
L:1/8
K:D

|f/g/ |: af ge | dA/A/ AA |  BA cA  | df af/g/  | af ge | dA/A/ AA |  BA cA |1 dd df/g/ :|2 d/d/d/d/ d2|
|:f/f/f/f/ gf | ez B2 | A/A/A/A/ Bc | de f2 |  f/f/f/f/ gf | ez B2 | A/A/A/A/ Bc | dd d2 :|
|:a3/f/ dd | c/e/A c/e/A | g3/e/ cc | d/c/d/e/ f/e/f/g/ | a3/f/ dd | c/e/A c/e/A | g3/e/ cc | dd d2 :|

(:musicend:)
(:music:)
